svg/u274c.svg

<svg viewBox="0 0 128 128" xmlns="http://www.w3.org/2000/svg">
  <path d="M58.9,78.6l-41.3,41.9c-1.5,1.5-3.2,2.5-5,3c4.1,1.2,8.6,0.2,11.8-3l38.2-38.1c0.8-0.8,2.1-0.8,2.8,0 l0,0l-3.7-3.8C61,77.8,59.7,77.8,58.9,78.6z" fill="#CC3333"/>
  <path d="M82.3,65.4c-0.8-0.8-0.8-2,0-2.8l38.2-38.1c4.7-4.7,4.7-12.3,0-17s-12.2-4.7-16.9,0L65.4,45.6 c-0.8,0.8-2,0.8-2.8,0L24.5,7.5c-4.7-4.7-12.3-4.7-17,0c-0.4,0.4-0.7,0.8-1,1.2C6.7,8.4,6.9,8.2,7.1,8c4.7-4.6,10.1-2.5,14.8,2.2 l37.6,38.5c0.8,0.8,2,0.8,2.8,0l39.3-39.2c4.7-4.7,9.4-5.1,14.1-0.4s3.9,9.6-0.8,14.3L75.6,62.6c-0.8,0.8-0.8,2,0,2.8 c0,0,38.1,38.2,38,38.2c4.7,4.7,6.5,10,1.8,14.7s-10.6,3.5-15.3-1.1l3.4,3.4c4.7,4.7,12.3,4.7,17,0s4.7-12.2,0-16.9 C120.5,103.6,82.3,65.4,82.3,65.4z" fill="#CC3333"/>
  <path d="M115.4,118.3c4.7-4.7,2.9-10-1.8-14.7c0.1,0-38-38.2-38-38.2c-0.8-0.8-0.8-2,0-2.8l39.3-39.2 c4.7-4.7,5.5-9.6,0.8-14.3s-9.4-4.3-14.1,0.4L62.3,48.7c-0.8,0.8-2,0.8-2.8,0L21.9,10.2C17.2,5.5,11.8,3.4,7.1,8 C6.9,8.2,6.7,8.4,6.5,8.7c-3.7,4.7-3.3,11.4,1,15.7l38.1,38.2c0.8,0.8,0.8,2.1,0,2.8L7.5,103.5c-4.7,4.7-4.7,12.3,0,17 c1.5,1.5,3.2,2.5,5,3c1.8-0.6,3.6-1.6,5-3l41.3-41.9c0.8-0.8,2.1-0.8,2.8,0l3.7,3.8l34.7,34.8C104.8,121.8,110.7,123,115.4,118.3z" fill="#F44336"/>
  <g>
    <path d="M55,56.4c-1.1-1.6-32.3-33.1-32.3-33.1s-2.3-2.6-4.7-0.8 c-2.2,1.7-1.1,4.3,0.1,5.6s29,29.7,30.4,30.9c1.3,1.2,3.9,1.4,5.5,0.6S55.8,57.5,55,56.4z" opacity="0.2" fill="#FFFFFF" enable-background="new "/>
    <circle cx="12.2" cy="19" r="3.3" opacity="0.2" fill="#FFFFFF" enable-background="new "/>
  </g>
  <path d="M72.1,81.8c1.1,1.6,32.8,32.6,32.8,32.6s2.3,2.6,4.7,0.7 c2.2-1.7,1-4.3-0.2-5.6C108.2,108.2,80,80.2,78.6,79c-1.3-1.2-3.9-1.3-5.5-0.5S71.3,80.7,72.1,81.8z" opacity="0.2" fill="#FFFFFF" enable-background="new "/>
</svg>

<svg viewBox="0 0 128 128" xmlns="http://www.w3.org/2000/svg">
  <defs/>
  <path d="M58.9,78.6 L17.6,120.5 C16.1,122 14.4,123 12.6,123.5 C16.7,124.7 21.2,123.7 24.4,120.5 L62.6,82.4 C63.4,81.6 64.7,81.6 65.4,82.4 L65.4,82.4 L61.7,78.6 C61,77.8 59.7,77.8 58.9,78.6 Z" fill="#CC3333"/>
  <path d="M82.3,65.4 C81.5,64.6 81.5,63.4 82.3,62.6 L120.5,24.5 C125.2,19.8 125.2,12.2 120.5,7.5 C115.8,2.8 108.3,2.8 103.6,7.5 L65.4,45.6 C64.6,46.4 63.4,46.4 62.6,45.6 L24.5,7.5 C19.8,2.8 12.2,2.8 7.5,7.5 C7.1,7.9 6.8,8.3 6.5,8.7 C6.7,8.4 6.9,8.2 7.1,8 C11.8,3.4 17.2,5.5 21.9,10.2 L59.5,48.7 C60.3,49.5 61.5,49.5 62.3,48.7 L101.6,9.5 C106.3,4.8 111,4.4 115.7,9.1 C120.4,13.8 119.6,18.7 114.9,23.4 L75.6,62.6 C74.8,63.4 74.8,64.6 75.6,65.4 C75.6,65.4 113.7,103.6 113.6,103.6 C118.3,108.3 120.1,113.6 115.4,118.3 C110.7,123 104.8,121.8 100.1,117.2 L103.5,120.6 C108.2,125.3 115.8,125.3 120.5,120.6 C125.2,115.9 125.2,108.4 120.5,103.7 C120.5,103.6 82.3,65.4 82.3,65.4 Z" fill="#CC3333"/>
  <path d="M115.4,118.3 C120.1,113.6 118.3,108.3 113.6,103.6 C113.7,103.6 75.6,65.4 75.6,65.4 C74.8,64.6 74.8,63.4 75.6,62.6 L114.9,23.4 C119.6,18.7 120.4,13.8 115.7,9.1 C111,4.4 106.3,4.8 101.6,9.5 L62.3,48.7 C61.5,49.5 60.3,49.5 59.5,48.7 L21.9,10.2 C17.2,5.5 11.8,3.4 7.1,8 C6.9,8.2 6.7,8.4 6.5,8.7 C2.8,13.4 3.2,20.1 7.5,24.4 L45.6,62.6 C46.4,63.4 46.4,64.7 45.6,65.4 L7.5,103.5 C2.8,108.2 2.8,115.8 7.5,120.5 C9,122 10.7,123 12.5,123.5 C14.3,122.9 16.1,121.9 17.5,120.5 L58.8,78.6 C59.6,77.8 60.9,77.8 61.6,78.6 L65.3,82.4 L100,117.2 C104.8,121.8 110.7,123 115.4,118.3 Z" fill="#F44336"/>
  <path d="M55,56.4 C53.9,54.8 22.7,23.3 22.7,23.3 C22.7,23.3 20.4,20.7 18,22.5 C15.8,24.2 16.9,26.8 18.1,28.1 C19.3,29.4 47.1,57.8 48.5,59 C49.8,60.2 52.4,60.4 54,59.6 C55.6,58.8 55.8,57.5 55,56.4 Z" fill="#FFFFFF" opacity="0.2"/>
  <path d="M15.5,19 A3.3 3.3 0 1 1 8.9,19 A3.3 3.3 0 1 1 15.5,19 Z" fill="#FFFFFF" opacity="0.2"/>
  <path d="M72.1,81.8 C73.2,83.4 104.9,114.4 104.9,114.4 C104.9,114.4 107.2,117 109.6,115.1 C111.8,113.4 110.6,110.8 109.4,109.5 C108.2,108.2 80,80.2 78.6,79 C77.3,77.8 74.7,77.7 73.1,78.5 C71.5,79.3 71.3,80.7 72.1,81.8 Z" fill="#FFFFFF" opacity="0.2"/>
</svg>
